assets/images/vue.svg

<svg width="92" height="31" viewBox="0 0 92 31" fill="none" xmlns="http://www.w3.org/2000/svg">
<path d="M45.2559 22C45.2559 22 43.5273 17.5674 40.0703 8.70215C40.0703 8.70215 40.9346 8.70215 42.6631 8.70215C42.6631 8.70215 43.8584 12.0742 46.249 18.8184C46.249 18.8184 47.4414 15.4463 49.8262 8.70215C49.8262 8.70215 50.6904 8.70215 52.4189 8.70215C52.4189 8.70215 50.7021 13.1348 47.2686 22C47.2686 22 46.5977 22 45.2559 22ZM61.5859 12.0244C61.5859 12.0244 61.5859 15.3496 61.5859 22C61.5859 22 60.8477 22 59.3711 22C59.3711 22 59.3711 21.6807 59.3711 21.042C58.9141 21.4814 58.4717 21.792 58.0439 21.9736C57.6221 22.1494 57.1123 22.2373 56.5146 22.2373C55.8408 22.2373 55.2373 22.1025 54.7041 21.833C54.1709 21.5576 53.7402 21.168 53.4121 20.6641C53.1543 20.2598 52.9727 19.8145 52.8672 19.3281C52.7617 18.8418 52.709 18.1914 52.709 17.377V12.0244H55.1084V16.9023C55.1084 17.5938 55.1465 18.1357 55.2227 18.5283C55.2988 18.915 55.4277 19.2197 55.6094 19.4424C55.9551 19.8408 56.418 20.04 56.998 20.04C57.4141 20.04 57.7832 19.958 58.1055 19.7939C58.4336 19.624 58.6826 19.3867 58.8525 19.082C58.9814 18.8594 59.0693 18.5723 59.1162 18.2207C59.1689 17.8633 59.1953 17.3652 59.1953 16.7266V12.0244H61.5859ZM73.3721 18.0801C73.3721 18.0801 70.7969 18.0801 65.6465 18.0801C65.793 18.6836 66.1123 19.1611 66.6045 19.5127C67.0967 19.8643 67.6973 20.04 68.4062 20.04C68.8984 20.04 69.3086 19.9668 69.6367 19.8203C69.9648 19.668 70.2842 19.4102 70.5947 19.0469H73.2051C73.0645 19.498 72.8008 19.9609 72.4141 20.4355C71.3828 21.6367 70.0645 22.2373 68.459 22.2373C67.709 22.2373 67 22.1025 66.332 21.833C65.6641 21.5635 65.0898 21.2002 64.6094 20.7432C64.1348 20.2803 63.7568 19.7295 63.4756 19.0908C63.1943 18.4463 63.0537 17.7666 63.0537 17.0518C63.0537 16.0908 63.2852 15.209 63.748 14.4062C64.2168 13.5977 64.8525 12.9619 65.6553 12.499C66.4639 12.0303 67.3486 11.7959 68.3096 11.7959C69.2881 11.7959 70.1699 12.0273 70.9551 12.4902C71.7402 12.9473 72.3525 13.5859 72.792 14.4062C73.2373 15.2207 73.46 16.1377 73.46 17.1572C73.46 17.4854 73.4307 17.793 73.3721 18.0801ZM65.5762 15.9707H71.1045C70.9521 15.332 70.6387 14.8428 70.1641 14.5029C69.6895 14.1631 69.083 13.9932 68.3447 13.9932C67.6299 13.9932 67.0352 14.1631 66.5605 14.5029C66.0918 14.8369 65.7637 15.3262 65.5762 15.9707ZM74.9102 22C74.9102 22 74.9102 21.2324 74.9102 19.6973C74.9102 19.6973 75.707 19.6973 77.3008 19.6973C77.3008 19.6973 77.3008 20.4648 77.3008 22C77.3008 22 76.5039 22 74.9102 22ZM79.8584 12.0244C79.8584 12.0244 80.6582 12.0244 82.2578 12.0244C82.2578 12.0244 82.2578 15.127 82.2578 21.332C82.2578 22.0762 82.1729 22.6973 82.0029 23.1953C81.833 23.6992 81.5635 24.124 81.1943 24.4697C80.5732 25.0439 79.7998 25.3311 78.874 25.3311V23.0107C79.1143 22.9697 79.293 22.9258 79.4102 22.8789C79.5273 22.832 79.624 22.7412 79.7002 22.6064C79.7764 22.4717 79.8203 22.3105 79.832 22.123C79.8496 21.9414 79.8584 21.6602 79.8584 21.2793V12.0244ZM79.8584 10.9521V8.70215H82.2578C82.2578 8.70215 82.2578 9.45215 82.2578 10.9521C82.2578 10.9521 81.458 10.9521 79.8584 10.9521ZM83.4971 18.8359C83.4971 18.8359 84.2998 18.8359 85.9053 18.8359C86.0225 19.2578 86.1865 19.5654 86.3975 19.7588C86.6084 19.9463 86.8896 20.04 87.2412 20.04C87.5576 20.04 87.8154 19.9492 88.0146 19.7676C88.2197 19.5801 88.3223 19.3457 88.3223 19.0645C88.3223 18.7363 88.1699 18.4785 87.8652 18.291C87.7363 18.2148 87.6104 18.1504 87.4873 18.0977C87.3643 18.0449 87.0771 17.9424 86.626 17.79C85.6299 17.4561 84.918 17.0635 84.4902 16.6123C84.0684 16.1611 83.8574 15.5693 83.8574 14.8369C83.8574 13.9814 84.1738 13.2607 84.8066 12.6748C85.4453 12.0889 86.2334 11.7959 87.1709 11.7959C87.6865 11.7959 88.1729 11.8984 88.6299 12.1035C89.0928 12.3086 89.4824 12.5957 89.7988 12.9648C90.0156 13.2227 90.1709 13.4893 90.2646 13.7646C90.3643 14.04 90.4229 14.3799 90.4404 14.7842H88.1025C87.9971 14.2568 87.6865 13.9932 87.1709 13.9932C86.9131 13.9932 86.6934 14.0752 86.5117 14.2393C86.3359 14.3975 86.248 14.5967 86.248 14.8369C86.248 15.1416 86.4033 15.3643 86.7139 15.5049C86.8838 15.5752 87.2939 15.7129 87.9443 15.918C88.9521 16.2285 89.6641 16.6035 90.0801 17.043C90.502 17.4824 90.7129 18.0801 90.7129 18.8359C90.7129 19.791 90.3672 20.5967 89.6758 21.2529C88.9844 21.9092 88.1406 22.2373 87.1445 22.2373C86.5293 22.2373 85.9492 22.1084 85.4043 21.8506C84.8652 21.5869 84.4375 21.2354 84.1211 20.7959C83.9336 20.5264 83.793 20.248 83.6992 19.9609C83.6055 19.6738 83.5381 19.2988 83.4971 18.8359Z" fill="#111111"/>
<path d="M28 0.0507812H35L17.5 30.0508L0 0.0507812H13.3875L17.5 7.0073L21.525 0.0507812H28Z" fill="#41B883"/>
<path d="M0 0.0507812L17.5 30.0508L35 0.0507812H28L17.5 18.0508L6.9125 0.0507812H0Z" fill="#41B883"/>
<path d="M6.91211 0.0507812L17.4996 18.1377L27.9996 0.0507812H21.5246L17.4996 7.0073L13.3871 0.0507812H6.91211Z" fill="#35495E"/>
</svg>

<svg width="92" height="31" fill="none" xmlns="http://www.w3.org/2000/svg"><path d="M45.256 22 40.07 8.702h2.593l3.586 10.116 3.577-10.116h2.593L47.269 22h-2.013Zm16.33-9.976V22H59.37v-.958c-.457.44-.9.75-1.327.932-.422.175-.932.263-1.53.263-.673 0-1.277-.134-1.81-.404a3.353 3.353 0 0 1-1.292-1.169 4.066 4.066 0 0 1-.545-1.336c-.105-.486-.158-1.137-.158-1.951v-5.353h2.4v4.878c0 .692.038 1.234.114 1.626.076.387.205.692.386.914.346.399.809.598 1.389.598.416 0 .785-.082 1.108-.246.328-.17.577-.407.746-.712.13-.223.217-.51.264-.861.053-.358.08-.856.08-1.494v-4.703h2.39Zm11.786 6.056h-7.725c.146.604.465 1.081.957 1.433.493.351 1.093.527 1.802.527.492 0 .903-.073 1.23-.22.329-.152.648-.41.959-.773h2.61c-.14.451-.404.914-.79 1.389-1.032 1.2-2.35 1.801-3.956 1.801a5.63 5.63 0 0 1-2.127-.404 5.4 5.4 0 0 1-1.723-1.09 5.217 5.217 0 0 1-1.133-1.652 5.043 5.043 0 0 1-.422-2.04 5.203 5.203 0 0 1 2.601-4.552 5.2 5.2 0 0 1 2.655-.703c.978 0 1.86.231 2.645.694a4.783 4.783 0 0 1 1.837 1.916c.445.815.668 1.732.668 2.751 0 .328-.03.636-.088.923Zm-7.796-2.11h5.529c-.153-.638-.466-1.127-.94-1.467-.476-.34-1.082-.51-1.82-.51-.715 0-1.31.17-1.784.51-.47.334-.797.823-.985 1.468ZM74.91 22v-2.303h2.39V22h-2.39Zm4.948-9.976h2.4v9.308c0 .744-.085 1.365-.255 1.863-.17.504-.44.929-.809 1.275-.62.574-1.394.861-2.32.861v-2.32c.24-.041.419-.085.536-.132a.589.589 0 0 0 .29-.273 1.11 1.11 0 0 0 .132-.483c.018-.182.026-.463.026-.844v-9.255Zm0-1.072v-2.25h2.4v2.25h-2.4Zm3.64 7.884h2.407c.117.422.281.73.492.923.211.187.493.281.844.281.317 0 .574-.09.774-.272a.913.913 0 0 0 .307-.704c0-.328-.152-.585-.457-.773a3.286 3.286 0 0 0-.378-.193c-.123-.053-.41-.156-.861-.308-.996-.334-1.708-.726-2.136-1.178-.422-.45-.633-1.043-.633-1.775 0-.856.317-1.576.95-2.162.638-.586 1.426-.88 2.364-.88.515 0 1.002.103 1.459.309a3.25 3.25 0 0 1 1.169.86c.217.259.372.525.466.8.1.276.158.616.175 1.02h-2.337c-.106-.527-.416-.79-.932-.79a.949.949 0 0 0-.66.245.77.77 0 0 0-.263.598c0 .305.155.527.466.668.17.07.58.208 1.23.413 1.008.31 1.72.686 2.136 1.125.422.44.633 1.037.633 1.793 0 .955-.346 1.76-1.037 2.417-.692.656-1.535.984-2.532.984a4.019 4.019 0 0 1-1.74-.386 3.367 3.367 0 0 1-1.283-1.055 3.202 3.202 0 0 1-.422-.835c-.093-.287-.16-.662-.202-1.125Z" fill="#111"/><path d="M28 .05h7l-17.5 30L0 .05h13.387L17.5 7.008 21.525.051H28Z" fill="#41B883"/><path d="m0 .05 17.5 30L35 .05h-7l-10.5 18L6.912.05H0Z" fill="#41B883"/><path d="M6.912.05 17.5 18.139 28 .05h-6.475L17.5 7.007 13.387.051H6.912Z" fill="#35495E"/></svg>
